build/images/g11.svg

<svg width="138" height="138" viewBox="0 0 138 138" fill="none" xmlns="http://www.w3.org/2000/svg">
<circle cx="69" cy="69" r="69" fill="#76BD5E"/>
<path d="M109.313 104.62C109.095 104.62 108.813 104.595 108.495 104.558C108.73 103.931 111.281 96.6479 104.276 94.1224C86.2145 87.6074 76.2642 79.2519 74.6225 50.5885C76.3753 50.4058 77.3505 50.2552 77.3505 50.2552L78.9725 35.3674C78.9725 34.8712 68.1914 34.4688 61.0728 34.4688C53.9541 34.4688 43.1719 34.8712 43.1719 35.3686L44.684 49.2566C44.684 49.2566 45.6554 49.6219 47.6193 50.0404C48.8438 70.2928 44.6704 67.3389 43.6212 80.5653C43.3459 84.019 44.5531 87.2296 46.9898 89.5095L48.5599 108.531H56.2822C56.2822 108.531 56.4155 101.335 57.4906 97.828C67.6545 97.828 72.824 108.531 76.7888 108.531H109.315C110.001 108.531 110.001 104.62 109.313 104.62ZM45.9233 37.8374H76.2198L75.1064 48.0518C72.5525 48.3394 67.5298 48.7875 61.0135 48.7875C53.7739 48.7875 49.1154 47.8926 46.9589 47.3519L45.9233 37.8374ZM106.564 102.151H78.5392C78.0553 101.808 77.1295 100.988 76.3642 100.31C72.1797 96.606 65.1771 90.4057 56.476 90.4057C52.9691 90.4057 50.1202 89.3268 48.2353 87.2864C46.6479 85.5669 45.8826 83.25 46.0813 80.7603C46.4689 75.8549 47.2786 73.4256 48.1341 70.8544C49.5079 66.7242 50.8052 62.7705 50.114 50.4946C51.4042 50.6926 52.7006 50.8483 54.001 50.9612V72.7344H56.75V51.1476C58.0634 51.2143 59.478 51.2563 61.0135 51.2563C65.5474 51.2563 69.3542 51.0439 72.1562 50.8168C73.8584 80.3307 84.1778 89.4972 103.438 96.4467C104.852 96.9553 105.772 97.712 106.25 98.7587C106.74 99.8289 106.721 101.123 106.564 102.151Z" fill="white"/>
</svg>

<svg width="138" height="138" fill="none" xmlns="http://www.w3.org/2000/svg"><circle cx="69" cy="69" r="69" fill="#76BD5E"/><path d="M109.313 104.62c-.218 0-.5-.025-.818-.062.235-.627 2.786-7.91-4.219-10.436-18.061-6.515-28.012-14.87-29.653-43.533 1.752-.183 2.727-.334 2.727-.334l1.623-14.888c0-.496-10.782-.898-17.9-.898-7.119 0-17.901.402-17.901.9l1.512 13.888s.971.365 2.935.783c1.225 20.253-2.949 17.299-3.998 30.525-.275 3.454.932 6.665 3.369 8.945l1.57 19.021h7.722s.134-7.196 1.209-10.703c10.163 0 15.333 10.703 19.298 10.703h32.526c.686 0 .686-3.911-.002-3.911zm-63.39-66.783H76.22l-1.114 10.215c-2.553.287-7.576.736-14.092.736-7.24 0-11.899-.895-14.055-1.436l-1.036-9.515zm60.641 64.314H78.539c-.484-.343-1.41-1.163-2.175-1.841-4.184-3.704-11.187-9.904-19.888-9.904-3.507 0-6.356-1.08-8.24-3.12-1.588-1.72-2.353-4.036-2.155-6.526.388-4.905 1.198-7.334 2.053-9.906 1.374-4.13 2.671-8.084 1.98-20.36 1.29.199 2.587.354 3.887.467v21.773h2.749V51.148c1.313.066 2.728.108 4.264.108 4.533 0 8.34-.212 11.142-.44 1.702 29.515 12.022 38.681 31.282 45.63 1.414.51 2.334 1.266 2.812 2.313.49 1.07.471 2.364.314 3.392z" fill="#fff"/></svg>
